assets/icons/utility/full_width_view.svg

<?xml version="1.0"?><svg xmlns="http://www.w3.org/2000/svg" width="52" height="52" viewBox="0 0 52 52"><g fill="#fff"><path d="m48.5 4h-45c-0.8 0-1.5 0.7-1.5 1.5v5c0 0.8 0.7 1.5 1.5 1.5h45c0.8 0 1.5-0.7 1.5-1.5v-5c-0.1-0.8-0.7-1.5-1.5-1.5z m-37.8 12h-7c-0.8 0-1.5 0.7-1.5 1.5v29.8c0 0.8 0.7 1.5 1.5 1.5h7c0.8 0 1.5-0.7 1.5-1.5v-29.8c0-0.8-0.7-1.5-1.5-1.5z m37.8 0h-7c-0.8 0-1.5 0.7-1.5 1.5v29.8c0 0.8 0.7 1.5 1.5 1.5h7c0.8 0 1.5-0.7 1.5-1.5v-29.8c0-0.8-0.7-1.5-1.5-1.5z m-14 0h-16.8c-0.8 0-1.5 0.7-1.5 1.5v29.8c0 0.8 0.7 1.5 1.5 1.5h16.8c0.8 0 1.5-0.7 1.5-1.5v-29.8c0-0.8-0.7-1.5-1.5-1.5z"></path></g></svg>

<svg xmlns="http://www.w3.org/2000/svg" x="0px" y="0px"
	 width="52px" height="52px" viewBox="0 0 52 52" enable-background="new 0 0 52 52" xml:space="preserve">
<g>
	<path fill="#FFFFFF" d="M48.5,4h-45C2.7,4,2,4.7,2,5.5v5C2,11.3,2.7,12,3.5,12h45c0.8,0,1.5-0.7,1.5-1.5v-5C49.9,4.7,49.3,4,48.5,4
		z"/>
	<path fill="#FFFFFF" d="M10.7,16h-7c-0.8,0-1.5,0.7-1.5,1.5v29.8c0,0.8,0.7,1.5,1.5,1.5h7c0.8,0,1.5-0.7,1.5-1.5V17.5
		C12.2,16.7,11.5,16,10.7,16z"/>
	<path fill="#FFFFFF" d="M48.5,16h-7c-0.8,0-1.5,0.7-1.5,1.5v29.8c0,0.8,0.7,1.5,1.5,1.5h7c0.8,0,1.5-0.7,1.5-1.5V17.5
		C50,16.7,49.3,16,48.5,16z"/>
	<path fill="#FFFFFF" d="M34.5,16H17.7c-0.8,0-1.5,0.7-1.5,1.5v29.8c0,0.8,0.7,1.5,1.5,1.5h16.8c0.8,0,1.5-0.7,1.5-1.5V17.5
		C36,16.7,35.3,16,34.5,16z"/>
</g>
</svg>
